to hTree :depth :a :b
	
	IF :depth = 0 [STOP]
	
	lt 90 fd :a rt 90 fd :b
	hTree :depth - 1 :a/2 :b/2
	
	bk :b lt 90 bk :a rt 90
	rt 90 fd :a lt 90 fd :b
	hTree :depth - 1 :a/2 :b/2

	bk :b rt 90 bk :a lt 90
	lt 90 fd :a lt 90 fd :b
	hTree :depth - 1 :a/2 :b/2
	

	bk :b rt 90 bk :a rt 90
	rt 90 fd :a rt 90 fd :b
	hTree :depth - 1 :a/2 :b/2
	bk :b lt 90 bk :a lt 90

end

