to squares :depth :a

	if :depth = 0 [STOP]

	lt 135 pu fd :a/2 pd rt 90 fd :a/2 rt 90 fd :a rt 90 fd :a rt 90 fd :a rt 90 fd :a/2 lt 90 pu bk :a/2 pd

	squares (:depth  - 1) (((SQRT 2) * :a) / 2)

	ht
end

